X: 312
T: THE WINSOME WIDOW
T: An baintreabhach eireachdamhiul
B: O'Neill's 312
M: 2/4
L: 1/8
Z: 1999 by John Chambers <jc@trillian.mit.edu>
N: "With spirit"
N: "Collected by F.O'Neill"
K:G
D \
| G>G B>d | =f>f eg | d>B AG | EG (G<D) \
| G>G Bd | =f>f eg | d>B AG | (E<G-) G :|
|| (d/e/) \
| =f>f (ed) | (e>^f) (ge) | (e>d) (BG) | AG (E/D/) z/D/ \
| D>E GA | B>c de | d>B AG | (E<G-) G :|


